X:195
T:Buff Coat. (p)1670.PLFD.195
T:Miss Peaches Delight,aka. (p)1670.PLFD.195
T:She Wants A Fellow,aka. (p)1670.PLFD.195
M:4/4
L:1/8
Q:1/2=90
S:Playford, Dancing Master,4th Ed.,1670.
O:England
N:Also in time sig 6/8 in Eds. 7 onwards.Where it starts to sound like
N:Miss Peaches Delight.BC.30, and She Wants A Fellow.BF12.17.See also
N:Henry Atkinson,The Buff Coat Hath No Fellow.CGP.
H:1670.
Z:Chris Partingto
K:D
d4F4|E4c2B>c|d3AF3E|F2D6:|
|:d>cd2B>cd2|e>de2c>BA2|d>cd2e>de2|^f4a4|
f>ed2B>cd2|e>dc2A2B>c|d3AF3E|F2D6:|
